X: 25
T:The Piper on Horseback
M:4/4
L:1/8
S:Dianna Boullier, Bangor (fiddle)
R:Reel
D:Radio Na Gaeltachta
N:As played
Z:Bernie Stocks
K:D
+AE++A2F2+d cAAB | cAdB cAGE | +AE++A2F2+d cAAB | {c}BAGE {G}EDCE :|
defg afdf | efed cAEA | defg afdB | (3.A.A.AGE {G}EDDA |
defg g-aaf | efed cA+AE+e | azag efed | cAGE {G}EDCE ||
<end>
<start>
